svgs/duotone/trash-clock.svg

<svg xmlns="http://www.w3.org/2000/svg" viewBox="0 0 576 512"><!-- Font Awesome Pro 6.0.0-alpha2 by @fontawesome - https://fontawesome.com License - https://fontawesome.com/license (Commercial License) --><defs><style>.fa-secondary{opacity:.4}</style></defs><path d="M331.002 512H101.094C76.219 512 54.75 491.844 53.188 467L32 96H416L410.434 193.453C323.428 204.105 256 278.113 256 368C256 427.586 285.691 480.158 331.002 512Z" class="fa-secondary"/><path d="M448 80V48C448 39.162 440.838 32 432 32H320L308.422 8.844C305.713 3.424 300.172 0 294.111 0H153.889C147.828 0 142.289 3.424 139.578 8.844L128 32H16C7.164 32 0 39.162 0 48V80C0 88.836 7.164 96 16 96H432C440.838 96 448 88.836 448 80ZM432 224C352.375 224 288 288.375 288 368S352.375 512 432 512S576 447.625 576 368S511.625 224 432 224ZM480 384H425.75C420.375 384 416 379.625 416 374.25V304C416 295.162 423.164 288 432 288C440.838 288 448 295.162 448 304V352H480C488.838 352 496 359.162 496 368C496 376.836 488.838 384 480 384Z" class="fa-primary"/></svg>

<svg xmlns="http://www.w3.org/2000/svg" viewBox="0 0 576 512"><!--! Font Awesome Pro 6.0.0-alpha3 by @fontawesome - https://fontawesome.com License - https://fontawesome.com/license (Commercial License) --><defs><style>.fa-secondary{opacity:.4}</style></defs><path class="fa-primary" d="M448 80v-32C448 39.16 440.8 32 432 32H320l-11.58-23.16C305.7 3.424 300.2 0 294.1 0H153.9C147.8 0 142.3 3.424 139.6 8.844L128 32H16C7.164 32 0 39.16 0 48v32C0 88.84 7.164 96 16 96h416C440.8 96 448 88.84 448 80zM432 224C352.4 224 288 288.4 288 368s64.38 144 144 144s144-64.38 144-144S511.6 224 432 224zM480 384h-54.25C420.4 384 416 379.6 416 374.3V304C416 295.2 423.2 288 432 288C440.8 288 448 295.2 448 304V352h32c8.838 0 16 7.162 16 16C496 376.8 488.8 384 480 384z"/><path class="fa-secondary" d="M331 512h-229.9c-24.88 0-46.33-20.16-47.9-45L32 96h384l-5.566 97.45C323.4 204.1 256 278.1 256 368C256 427.6 285.7 480.2 331 512z"/></svg>
